X:524
T:Ellen O'Leary's Jig
R:jig
Z:id:hn-jig-524
M:6/8
L:1/8
K:D
FDD EFG | Adc A2G | FDD GEE | FDD EDE |
FDD EFG | Adc A2G | FDD GEE |1 EDD D2E :|2 EDD D2e |
|: fed edc | Adc d2e | fed e2d | cAA Ade |
fed edc | Adc A2G | FDD GEE |1 EDD D2e :|2 EDD D2E ||

